X: 39246
T: Taflwn Yr Hosan
R: slip jig
M: 9/8
K: Gmajor
|:GAG GBG GFD|GAG GAB CAF|GAG GBG GFD|FGA f2d gAF:|
|:B/cdB A/BcA B2G|B/cdB cAd cAF|B/cdB A/BcA B2G|FGA f2d cAF:|
|:G2g gdB gdB|G2g gdB gdB|G2g gdB gdB|A2f fcA fcA:|
|:gag gdg g3|gag gdg agf|gag gdg g3|FGA f2d cBA:|

